X:116
T:B116-  Diana's a nymph
Q:1/4=120
L:1/4
M:3/4
K:Dm
A|ddA|F2D|B3/2A/2d|^c2d|\
e3/2f/2e|d=Bc|A3/2=B/2^G|A2A|\
c3/2d/2c|(d/2c/2) (B/2A/2) (G/2F/2)|G3/2A/2B|A2c3/4c/4|\
f3/2e/2d|AAc|F3/2G/2E|F2||A|\
c3/2=B/^c|dd=B|e3/2f/2e|^c2f3/4e/4|\
ddz/2=B/2|^cAf/2e/2|d3/2e/2^c|.d2|]
